assets/Face with thermometer/Flat/face_with_thermometer_flat.svg

<svg width="32" height="32" viewBox="0 0 32 32" fill="none" xmlns="http://www.w3.org/2000/svg">
<path d="M15.5 30C24.5018 30 29 23.9558 29 16.5C29 9.04416 24.5018 3 15.5 3C6.49821 3 2 9.04416 2 16.5C2 23.9558 6.49821 30 15.5 30Z" fill="#FFB02E"/>
<path opacity="0.5" d="M7 21C8.10457 21 9 20.1046 9 19C9 17.8954 8.10457 17 7 17C5.89543 17 5 17.8954 5 19C5 20.1046 5.89543 21 7 21Z" fill="#F8312F"/>
<path d="M14 13.5C14 15.433 12.433 17 10.5 17C8.56701 17 7 15.433 7 13.5C7 11.567 8.56701 10 10.5 10C12.433 10 14 11.567 14 13.5Z" fill="white"/>
<path d="M23 13.5C23 15.433 21.433 17 19.5 17C17.567 17 16 15.433 16 13.5C16 11.567 17.567 10 19.5 10C21.433 10 23 11.567 23 13.5Z" fill="white"/>
<path d="M13.5 13.5C13.5 14.8807 12.3807 16 11 16C9.61929 16 8.5 14.8807 8.5 13.5C8.5 12.1193 9.61929 11 11 11C12.3807 11 13.5 12.1193 13.5 13.5Z" fill="#402A32"/>
<path d="M21.5 13.5C21.5 14.8807 20.3807 16 19 16C17.6193 16 16.5 14.8807 16.5 13.5C16.5 12.1193 17.6193 11 19 11C20.3807 11 21.5 12.1193 21.5 13.5Z" fill="#402A32"/>
<path d="M29.1533 17.6339C30.0557 16.9969 30.2709 15.749 29.6339 14.8466C28.9969 13.9442 27.749 13.7291 26.8466 14.366L18.3466 20.366C18.1019 20.5388 17.9077 20.7565 17.7673 21H18.9999C20.1045 21 20.9999 21.8954 20.9999 23V23.3892L29.1533 17.6339Z" fill="#D3D3D3"/>
<path d="M28.5767 16.8169C29.0279 16.4984 29.1355 15.8745 28.817 15.4233C28.4985 14.9721 27.8745 14.8645 27.4233 15.183L19.1722 21.0073C19.9419 21.0729 20.5871 21.5744 20.8602 22.2639L28.5767 16.8169Z" fill="#F70A8D"/>
<path d="M11.5 7C11.7762 7 12 7.22386 12 7.5C12 8.63568 11.5692 9.52418 10.8947 10.1237C10.2295 10.7151 9.35657 11 8.50004 11C8.22389 11 8.00004 10.7761 8.00004 10.5C8.00004 10.2239 8.22389 10 8.50004 10C9.1435 10 9.77062 9.78495 10.2304 9.3763C10.6809 8.97582 11 8.36432 11 7.5C11 7.22386 11.2239 7 11.5 7Z" fill="#402A32"/>
<path d="M19.5 7C19.2239 7 19 7.22386 19 7.5C19 8.63568 19.4309 9.52418 20.1054 10.1237C20.7706 10.7151 21.6435 11 22.5 11C22.7762 11 23 10.7761 23 10.5C23 10.2239 22.7762 10 22.5 10C21.8566 10 21.2295 9.78495 20.7697 9.3763C20.3192 8.97582 20 8.36432 20 7.5C20 7.22386 19.7762 7 19.5 7Z" fill="#402A32"/>
<path d="M9.78091 23.1247C10.2819 22.4985 12.1404 21 15 21C17.8597 21 19.7182 22.4985 20.2192 23.1247C20.5642 23.556 21.1935 23.6259 21.6247 23.2809C22.056 22.9359 22.1259 22.3066 21.7809 21.8753C20.9486 20.8349 18.5404 19 15 19C11.4597 19 9.05151 20.8349 8.21917 21.8753C7.87416 22.3066 7.94408 22.9359 8.37534 23.2809C8.8066 23.6259 9.4359 23.556 9.78091 23.1247Z" fill="#402A32"/>
<path d="M27.1 15.8L26.3091 14.7454L26.8466 14.366C26.9422 14.2985 27.0417 14.2406 27.144 14.192L27.9 15.2C28.0657 15.4209 28.0209 15.7343 27.8 15.9C27.5791 16.0657 27.2657 16.0209 27.1 15.8Z" fill="#212121"/>
<path d="M24.4918 16.0282L23.6748 16.6049L24.3431 17.5406C24.5036 17.7653 24.8158 17.8173 25.0406 17.6568C25.2653 17.4963 25.3173 17.1841 25.1568 16.9594L24.4918 16.0282Z" fill="#212121"/>
<path d="M20.8429 18.604L21.6096 19.5623C21.7821 19.778 22.0967 19.8129 22.3124 19.6404C22.528 19.4679 22.563 19.1533 22.3905 18.9376L21.6613 18.0262L20.8429 18.604Z" fill="#212121"/>
</svg>

<svg xmlns="http://www.w3.org/2000/svg" width="32" height="32" fill="none"><path fill="#FFB02E" d="M15.5 30C24.502 30 29 23.956 29 16.5S24.502 3 15.5 3C6.498 3 2 9.044 2 16.5S6.498 30 15.5 30Z"/><path fill="#F8312F" d="M7 21a2 2 0 1 0 0-4 2 2 0 0 0 0 4Z" opacity=".5"/><path fill="#fff" d="M14 13.5a3.5 3.5 0 1 1-7 0 3.5 3.5 0 0 1 7 0ZM23 13.5a3.5 3.5 0 1 1-7 0 3.5 3.5 0 0 1 7 0Z"/><path fill="#402A32" d="M13.5 13.5a2.5 2.5 0 1 1-5 0 2.5 2.5 0 0 1 5 0ZM21.5 13.5a2.5 2.5 0 1 1-5 0 2.5 2.5 0 0 1 5 0Z"/><path fill="#D3D3D3" d="M29.153 17.634a2 2 0 1 0-2.306-3.268l-8.5 6c-.245.173-.44.39-.58.634H19a2 2 0 0 1 2 2v.39l8.153-5.756Z"/><path fill="#F70A8D" d="M28.577 16.817a1 1 0 1 0-1.154-1.634l-8.25 5.824c.769.066 1.414.567 1.687 1.257l7.717-5.447Z"/><path fill="#402A32" d="M11.5 7a.5.5 0 0 1 .5.5c0 1.136-.43 2.024-1.105 2.624-.665.591-1.538.876-2.395.876a.5.5 0 0 1 0-1c.643 0 1.27-.215 1.73-.624.45-.4.77-1.012.77-1.876a.5.5 0 0 1 .5-.5ZM19.5 7a.5.5 0 0 0-.5.5c0 1.136.43 2.024 1.105 2.624.666.591 1.538.876 2.395.876a.5.5 0 1 0 0-1c-.643 0-1.27-.215-1.73-.624-.45-.4-.77-1.012-.77-1.876a.5.5 0 0 0-.5-.5ZM9.78 23.125C10.283 22.498 12.14 21 15 21s4.718 1.498 5.22 2.125a1 1 0 1 0 1.56-1.25C20.95 20.835 18.54 19 15 19s-5.948 1.835-6.78 2.875a1 1 0 0 0 1.56 1.25Z"/><path fill="#212121" d="m27.1 15.8-.79-1.055.537-.379c.095-.067.195-.125.297-.174L27.9 15.2a.5.5 0 0 1-.8.6ZM24.492 16.028l-.817.577.668.936a.5.5 0 0 0 .814-.582l-.665-.93ZM20.843 18.604l.767.958a.5.5 0 1 0 .78-.624l-.729-.912-.818.578Z"/></svg>
